X:18907
T:Woodchopper's Breakdown
R:reel
C:Ned Landry
M:2/4
L:1/16
K:D
fg|afdB AdFA|DFAd f2ef|(3gfe cB Aceg|a^gab a2f=g|
afdB AdFA|DFAd f2ef|(3gfe cB Acec|dfec d2:|
|:FE|DFAd (3BdB AF|DFAd (3BdBA2|A,CEA ceaf|gfed cBAF|
DFAd (3BdB AF|DFAd (3BdBA2|A,CEA ceaf|(3gfe cA d2:|


